svg/24/game.svg

<svg width="24" height="24" viewBox="0 0 24 24" fill="currentColor" xmlns="http://www.w3.org/2000/svg"><path d="M8.75 8.5C8.75 8.08579 8.41421 7.75 8 7.75C7.58579 7.75 7.25 8.08579 7.25 8.5V9.25H6.5C6.08579 9.25 5.75 9.58579 5.75 10C5.75 10.4142 6.08579 10.75 6.5 10.75H7.25V11.5C7.25 11.9142 7.58579 12.25 8 12.25C8.41421 12.25 8.75 11.9142 8.75 11.5V10.75H9.5C9.91421 10.75 10.25 10.4142 10.25 10C10.25 9.58579 9.91421 9.25 9.5 9.25H8.75V8.5Z"/><path d="M16 11.5C16.8284 11.5 17.5 10.8284 17.5 10C17.5 9.17157 16.8284 8.5 16 8.5C15.1716 8.5 14.5 9.17157 14.5 10C14.5 10.8284 15.1716 11.5 16 11.5Z"/><path fill-rule="evenodd" clip-rule="evenodd" d="M17.1364 17.8486L15 15H9L6.86356 17.8486C6.31994 18.5734 5.46677 19 4.56073 19C2.72812 19 1.36209 17.3102 1.74608 15.5183L3.66123 6.58094C3.85883 5.6588 4.67376 5 5.61683 5H18.3832C19.3262 5 20.1412 5.6588 20.3388 6.58094L22.2539 15.5183C22.6379 17.3102 21.2719 19 19.4393 19C18.5332 19 17.6801 18.5734 17.1364 17.8486ZM8.25 13.5L5.66356 16.9486C5.40322 17.2957 4.99463 17.5 4.56073 17.5C3.68308 17.5 3.02889 16.6908 3.21278 15.8326L5.12793 6.89524C5.17733 6.6647 5.38106 6.5 5.61683 6.5H18.3832C18.6189 6.5 18.8227 6.6647 18.8721 6.89524L20.7872 15.8326C20.9711 16.6908 20.3169 17.5 19.4393 17.5C19.0054 17.5 18.5968 17.2957 18.3364 16.9486L15.75 13.5H8.25Z"/></svg>

<svg xmlns="http://www.w3.org/2000/svg" width="24" height="24" fill="currentColor" viewBox="0 0 24 24">
  <path d="M8.75 8.5a.75.75 0 1 0-1.5 0v.75H6.5a.75.75 0 0 0 0 1.5h.75v.75a.75.75 0 0 0 1.5 0v-.75h.75a.75.75 0 0 0 0-1.5h-.75V8.5Zm7.25 3a1.5 1.5 0 1 0 0-3 1.5 1.5 0 0 0 0 3Z"/>
  <path fill-rule="evenodd" d="M17.137 17.849 15 15H9l-2.136 2.849a2.879 2.879 0 0 1-5.118-2.33L3.661 6.58A2 2 0 0 1 5.617 5h12.766a2 2 0 0 1 1.956 1.58l1.915 8.938a2.879 2.879 0 0 1-5.117 2.33ZM8.25 13.5l-2.586 3.449a1.379 1.379 0 0 1-2.451-1.116l1.915-8.938a.5.5 0 0 1 .489-.395h12.766a.5.5 0 0 1 .49.395l1.914 8.938a1.379 1.379 0 0 1-2.45 1.116L15.75 13.5h-7.5Z" clip-rule="evenodd"/>
</svg>
